tracks/c.svg

<svg width="96" height="96" viewBox="0 0 96 96" fill="none" xmlns="http://www.w3.org/2000/svg">
<path d="M44 2.30935C46.4752 0.880283 49.5248 0.880284 52 2.30935L85.5692 21.6905C88.0444 23.1196 89.5692 25.7606 89.5692 28.6187V67.3811C89.5692 70.2393 88.0444 72.8803 85.5692 74.3093L52 93.6905C49.5248 95.1196 46.4752 95.1196 44 93.6905L10.4308 74.3093C7.95558 72.8803 6.43079 70.2393 6.43079 67.3811V28.6187C6.43079 25.7606 7.95558 23.1196 10.4308 21.6905L44 2.30935Z" fill="white"/>
<path fill-rule="evenodd" clip-rule="evenodd" d="M84.1907 22.9024L51.5701 4.06896C49.3322 2.77689 46.575 2.77689 44.337 4.06896L11.7165 22.9024C9.47853 24.1945 8.09991 26.5824 8.09991 29.1665V66.8335C8.09991 69.4176 9.47853 71.8055 11.7165 73.0975L44.337 91.931C46.575 93.2231 49.3322 93.2231 51.5701 91.931L84.1907 73.0975C86.4286 71.8055 87.8072 69.4176 87.8072 66.8335V29.1665C87.8072 26.5824 86.4286 24.1945 84.1907 22.9024ZM53.1201 1.38436C49.923 -0.461454 45.9841 -0.461455 42.7871 1.38436L10.1665 20.2178C6.96946 22.0637 5 25.4749 5 29.1665V66.8335C5 70.5251 6.96946 73.9363 10.1665 75.7821L42.7871 94.6156C45.9841 96.4614 49.923 96.4614 53.1201 94.6156L85.7406 75.7821C88.9377 73.9363 90.9071 70.5251 90.9071 66.8335V29.1665C90.9071 25.4749 88.9377 22.0637 85.7406 20.2178L53.1201 1.38436Z" fill="#341394"/>
<path d="M49.4499 72C36.2163 72 25.4499 61.2336 25.4499 48C25.4499 34.7664 36.2163 24 49.4499 24C57.9892 24 65.9532 28.5953 70.2337 35.9925L59.8471 42.0028C57.7047 38.3002 53.7205 36 49.4499 36C42.833 36 37.4499 41.3831 37.4499 48C37.4499 54.6167 42.833 60 49.4499 60C53.721 60 57.7052 57.6998 59.8478 53.9965L70.2344 60.0066C65.9539 67.4045 57.9897 72 49.4499 72Z" fill="#341394"/>
</svg>

<svg width="96" height="96" fill="none" xmlns="http://www.w3.org/2000/svg">
  <path d="M44 2.3093a8 8 0 018 0l33.5692 19.3812a8 8 0 014 6.9282v38.7624a7.9998 7.9998 0 01-4 6.9282L52 93.6905a7.9998 7.9998 0 01-8 0L10.4308 74.3093a7.9998 7.9998 0 01-4-6.9282V28.6187a8 8 0 014-6.9282L44 2.3093z" fill="#fff"/>
  <path fill-rule="evenodd" clip-rule="evenodd" d="M84.1907 22.9024L51.5701 4.069a7.233 7.233 0 00-7.2331 0L11.7165 22.9024a7.2332 7.2332 0 00-3.6166 6.2641v37.667a7.233 7.233 0 003.6166 6.264L44.337 91.931a7.233 7.233 0 007.2331 0l32.6206-18.8335a7.233 7.233 0 003.6165-6.264v-37.667a7.2333 7.2333 0 00-3.6165-6.2641zM53.1201 1.3844a10.333 10.333 0 00-10.333 0L10.1665 20.2178A10.3332 10.3332 0 005 29.1665v37.667a10.333 10.333 0 005.1665 8.9486l32.6206 18.8335a10.333 10.333 0 0010.333 0l32.6205-18.8335a10.3328 10.3328 0 005.1665-8.9486v-37.667a10.3331 10.3331 0 00-5.1665-8.9487L53.1201 1.3844z" fill="#138C94"/>
  <path d="M49.4499 72c-13.2336 0-24-10.7664-24-24s10.7664-24 24-24c8.5393 0 16.5033 4.5953 20.7838 11.9925l-10.3866 6.0103C57.7047 38.3002 53.7205 36 49.4499 36c-6.6169 0-12 5.3831-12 12 0 6.6167 5.3831 12 12 12 4.2711 0 8.2553-2.3002 10.3979-6.0035l10.3866 6.0101C65.9539 67.4045 57.9897 72 49.4499 72z" fill="#138C94"/>
</svg>
